X:93
T:All Glory, Laud, and Honor
%%stretchlast false
M:4/4
L:1/4
K:Ab clef=C1
"^iii+"[A,,C,A,] "^I"[A,,C,A,E]/ "^♯iii"[A,,D,B,E]/ "^I"[A,,E,CE] "^IV"[D,A,F] | "^V7²"[B,,E,DG] "^♯iii"[A,,E,DA] "^I"[A,,E,CA]/ [A,,E,B,A]/ [A,,E,CA] | [A,,A,Ec] "^V"[E,G,EB] "^I¹"[C,A,EA] "^vi+"[D,F,DF] | "^V"[E,B,G] "^I"[A,,E,CA]3 | "^iii+"[A,,C,A,] "^I"[A,,C,A,E]/ "^♯iii"[A,,D,B,E]/ "^I"[A,,E,CE] "^IV"[D,A,F] | "^V7²"[B,,E,DG] "^♯iii"[A,,E,DA] "^I"[A,,E,CA]/ [A,,E,B,A]/ [A,,E,CA] | [A,,A,Ec] "^V"[E,G,EB] "^I¹"[C,A,EA] "^vi+"[D,F,DF] | "^V"[E,B,G] "^I"[A,,E,CA]3 | "^IV"[D,F,DA] "^iii+"[A,,A,Cc] "^vi"[F,,A,Cc] "^V¹"[G,,B,EB] | "^I¹"[C,E,EA] "^vii7¹"[B,,F,=DG] "^vii7²"[=D,B,FG] "^V"[E,B,EG] | "^iii"[C,CEG] "^vi"[F,,CA] "^V¹"[G,,B,EG] "^vi¹"[A,,F,CF]/ [A,,G,CF]/ | "^II7"[B,,A,=DF] "^V"[E,,G,E]3 | "^V¹"[G,,E,B,E] "^I"[A,,E,A,C] "^iii"[C,E,G,E] "^IV"[D,F,A,F] | "^I¹"[C,E,A,E] "^V¹"[G,,E,B,E] "^♯iii°"[E,,E,G,D] "^I"[A,,E,A,C] | "^I¹"[C,E,A,E] "^IV"[D,F,A,D] "^I"[A,,E,A,C] [E,,E,A,B,] | "^V"[E,,E,G,B,]/ "^V7"[E,,D,G,B,]/ "^iii+"[A,,C,A,]3 |]
